X: 53
T: REELS: Brenda Stubbert's Set
T: Brenda Stubbert's
C: C: Jerry Holland / Trad. / Trad.; S: Various
C: Set Leaders: André, Anton, Sophie, Tania
Z: [Unedited], Oleg Naumov arr.; seara / Tania Sycheva / slainte at The Session
N: https://thesession.org/members/26966/sets/96708
R: Reel
M: 4/4
L: 1/8
Q: 1/2=100
K: Ador
|:"Am"A/A/A BA GAAB|A/A/A BA edde|"G"G2 BA BGGB|c2 BA BGGB|
"Am"A/A/A BA GAAB|A/A/A Bd edda|"Em"gedB GABd|"G"e2 dB eAAB:||
|:"Am"A/A/A a2 A/A/A g2|"(D)"Aage ageg|"G"G2 BA BGGB|"C"c2 BA "G/B"BGGB|
[1 "Am"A/A/A a2 A/A/A g2|"(D)"Aage agea|"Em"gedB GABd|"G"e2 dB eAAG:|
[2 "Am"A/A/A BA GAAB|"D"A/A/A BA edda|"G"gedB GABd|"Em"e2 dB eAAB||
T: Dunmore Lasses
K: Emin
|:"Em"E2 EF G2 GA|Beed "D"Beed|"Em"EDEF GABG|"D"A2 BA GEFD|
"Em"EDEF GFGA|Beed "D/F#"e2 ef|"G"gefd eBdB|"Am"AcBA "D"GE E2:||
|:"Em (C)"gfeg fedc|"(D)"Beed Beef|"Em"g2 eg fedB|"D"AcBA GE E2|
"Em"gfeg fedc|Beed "D"e2 ef|"C"gefd eBdB|"D"A2 BA GE E2:||
T: Sally Gardens
K: Gmaj
|:"G"G2 DG BAGB|"(Em)"dBeB "(G/B)"dBAB|"C"d2 Bd efge|dBAB "D"GEDE|
"G"G2 DG BAGB|"(Em)"dBeB "(G/B)"dBAB|"C"d2 Bd efge|1 "D"dBAB G2 DE:|2 "D"dBAB "G"G2 "(D)"Bc||
|:"G"dggf g2 dg|"Em"gabg "(D/B)"aged|"C"eaag a2 ea|"Am"agbg "(D)"ageg|
"G"dggf "D/F#"g2 dg|"Em"gabg "(G/B)"ageg|"C"d2 Bd efge|1 "D"dBAB G2 Bc:|2 "C"dB"D"AB "G"G2 D/E/F||

